X:1433
T:Lord Gordon's Reel
M:C|
L:1/8
B:O'Neill's 1433
Z:"Transcribed by Bob Safranek, rjs@gsp.org"
K:D
dB|AD 3FED AD 3FED|ADFD A2 GF|EFGA BE 3FEDE|defd B2 AB|
defd       efdB|AFDF A2 Bc|dBcA BGAF|EFGA B2||
de|fd 3edcd fgag|fddf a2 gf|efga beef|degd B2 AB|
defd       efdB|AFDF A2 Bc|dBcA BGAF|EFGA B2|]
